X: 15374
T: Glasgow's Passion For Fashion
R: jig
M: 6/8
K: Gmajor
|:DG|B>cB BAG|Bcd g2 d|efg dBG|A3 D2 G|
B>cB BAG|Bcd g2 d|e/f/ge f<af|g3 z:|
|:dg|bgb agf|gfe d2 B|c>de dBG|
[1 A3 g2 a|bg/a/b agf|gdg dcB|cec d<gf|g3 z:|
[2 A3 d2 c|B>cB BAG|Bcd g2 d|e/f/ge f/g/af|gdB G||

